src/static/logos/rocket-chat.svg

<?xml version="1.0" encoding="UTF-8" standalone="no"?>
<svg width="256px" height="219px" viewBox="0 0 256 219" version="1.1" xmlns="http://www.w3.org/2000/svg" xmlns:xlink="http://www.w3.org/1999/xlink" preserveAspectRatio="xMidYMid">
	<g>
		<path d="M255.950264,109.306711 C255.950264,96.4544614 252.105575,84.1335707 244.520934,72.6761387 C237.71034,62.393828 228.168866,53.2917477 216.164747,45.6202498 C192.984204,30.8137223 162.517909,22.6568482 130.383453,22.6568482 C119.648976,22.6568482 109.067775,23.5637353 98.8059013,25.3621816 C92.4398098,19.4022734 84.9854539,14.040144 77.0993685,9.80204382 C34.9636086,-10.6195195 0.0216343685,9.32177688 0.0216343685,9.32177688 C0.0216343685,9.32177688 32.5086271,36.0098018 27.2256908,59.4023781 C12.6925067,73.8206047 4.81408529,91.2072897 4.81408529,109.306711 C4.81408529,109.362913 4.8166399,109.421669 4.8166399,109.480425 C4.8166399,109.536626 4.81408529,109.592828 4.81408529,109.654138 C4.81408529,127.75356 12.6899522,145.140245 27.2256908,159.555917 C32.5086271,182.951048 0.0216343685,209.639072 0.0216343685,209.639072 C0.0216343685,209.639072 34.9636086,229.577815 77.0993685,209.158805 C84.9854539,204.920705 92.4372552,199.556021 98.8059013,193.598668 C109.07033,195.39456 119.648976,196.301447 130.383453,196.301447 C162.520463,196.301447 192.984204,188.149681 216.164747,173.343154 C228.168866,165.671657 237.71034,156.572131 244.520934,146.28471 C252.105575,134.829833 255.950264,122.503833 255.950264,109.656693 C255.950264,109.597937 255.94771,109.541736 255.94771,109.48298 C255.94771,109.424224 255.950264,109.362913 255.950264,109.306711 L255.950264,109.306711 L255.950264,109.306711 Z" fill="#C1272D"></path>
		<path d="M130.383453,40.8277989 C189.888015,40.8277989 238.129296,71.6415212 238.129296,109.651584 C238.129296,147.659092 189.888015,178.475369 130.383453,178.475369 C117.132683,178.475369 104.443928,176.942602 92.720817,174.150411 C80.8061096,188.481781 54.595797,208.410305 29.1339855,201.97013 C37.4160356,193.074972 49.685834,178.043639 47.0596935,153.284346 C31.7984452,141.410513 22.6376088,126.213129 22.6376088,109.651584 C22.6350542,71.6389665 70.8763353,40.8277989 130.383453,40.8277989" fill="#FFFFFF"></path>
		<path d="M130.383453,126.17992 C138.288573,126.17992 144.69694,119.771552 144.69694,111.866431 C144.69694,103.961311 138.288573,97.5529443 130.383453,97.5529443 C122.478332,97.5529443 116.069965,103.961311 116.069965,111.866431 C116.069965,119.771552 122.478332,126.17992 130.383453,126.17992 L130.383453,126.17992 Z M180.147282,126.17992 C188.052402,126.17992 194.46077,119.771552 194.46077,111.866431 C194.46077,103.961311 188.052402,97.5529443 180.147282,97.5529443 C172.242161,97.5529443 165.833795,103.961311 165.833795,111.866431 C165.833795,119.771552 172.242161,126.17992 180.147282,126.17992 L180.147282,126.17992 Z M80.6170683,126.177365 C88.5207784,126.177365 94.9280012,119.770141 94.9280012,111.866431 C94.9280012,103.962722 88.5207784,97.5554988 80.6170683,97.5554988 C72.7133584,97.5554988 66.3061355,103.962722 66.3061355,111.866431 C66.3061355,119.770141 72.7133584,126.177365 80.6170683,126.177365 L80.6170683,126.177365 Z" fill="#C1272D"></path>
		<path d="M130.383453,169.419271 C117.132683,169.419271 104.443928,168.090873 92.720817,165.669102 C82.2009274,176.638603 60.5327138,191.38382 38.0776799,190.842242 C35.1194399,195.325585 31.9031842,198.991453 29.1339855,201.967575 C54.595797,208.40775 80.8061096,188.481781 92.720817,174.147857 C104.443928,176.942602 117.135238,178.472814 130.383453,178.472814 C189.410303,178.472814 237.34503,148.147023 238.108859,110.558471 C237.34503,143.139984 189.410303,169.419271 130.383453,169.419271 L130.383453,169.419271 L130.383453,169.419271 Z" fill="#CCCCCC"></path>
	</g>
</svg>

<svg width="256" height="219" xmlns="http://www.w3.org/2000/svg" preserveAspectRatio="xMidYMid"><path d="M255.95 109.307c0-12.853-3.844-25.173-11.43-36.63-6.81-10.283-16.351-19.385-28.355-27.057-23.18-14.806-53.647-22.963-85.782-22.963-10.734 0-21.315.907-31.577 2.705-6.366-5.96-13.82-11.322-21.707-15.56C34.964-10.62.022 9.322.022 9.322s32.487 26.688 27.204 50.08C12.693 73.821 4.814 91.207 4.814 109.307c0 .056.003.115.003.173 0 .057-.003.113-.003.174 0 18.1 7.876 35.486 22.412 49.902C32.509 182.95.022 209.639.022 209.639s34.942 19.939 77.077-.48c7.886-4.238 15.338-9.603 21.707-15.56 10.264 1.796 20.843 2.702 31.577 2.702 32.137 0 62.601-8.151 85.782-22.958 12.004-7.671 21.545-16.77 28.356-27.058 7.585-11.455 11.43-23.781 11.43-36.628 0-.06-.003-.115-.003-.174l.002-.176z" fill="#C1272D"/><path d="M130.383 40.828c59.505 0 107.746 30.814 107.746 68.824 0 38.007-48.241 68.823-107.746 68.823-13.25 0-25.94-1.532-37.662-4.325-11.915 14.332-38.125 34.26-63.587 27.82 8.282-8.895 20.552-23.926 17.926-48.686-15.262-11.873-24.422-27.07-24.422-43.632-.003-38.013 48.238-68.824 107.745-68.824" fill="#FFF"/><path d="M130.383 126.18c7.906 0 14.314-6.408 14.314-14.314 0-7.905-6.408-14.313-14.314-14.313-7.905 0-14.313 6.408-14.313 14.313 0 7.906 6.408 14.314 14.313 14.314zm49.764 0c7.905 0 14.314-6.408 14.314-14.314 0-7.905-6.409-14.313-14.314-14.313s-14.313 6.408-14.313 14.313c0 7.906 6.408 14.314 14.313 14.314zm-99.53-.003c7.904 0 14.311-6.407 14.311-14.31 0-7.904-6.407-14.312-14.31-14.312-7.905 0-14.312 6.408-14.312 14.311 0 7.904 6.407 14.311 14.311 14.311z" fill="#C1272D"/><path d="M130.383 169.42c-13.25 0-25.94-1.33-37.662-3.75-10.52 10.969-32.188 25.714-54.643 25.172-2.959 4.484-6.175 8.15-8.944 11.126 25.462 6.44 51.672-13.486 63.587-27.82 11.723 2.795 24.414 4.325 37.662 4.325 59.027 0 106.962-30.326 107.726-67.915-.764 32.582-48.699 58.861-107.726 58.861z" fill="#CCC"/></svg>
